Newaita-dark/apps/24/com.github.tkashkin.boiler.svg

<svg height="24" viewBox="0 0 24 24" width="24" xmlns="http://www.w3.org/2000/svg" xmlns:xlink="http://www.w3.org/1999/xlink"><linearGradient id="a"><stop offset="0" stop-opacity=".313726"/><stop offset=".222222" stop-opacity=".27451"/><stop offset="1" stop-opacity="0"/></linearGradient><radialGradient id="b" cx="450.908936" cy="189.579361" gradientTransform="matrix(.00000013 -.0585994 -.105479 -.00000008 33.392364 47.696497)" gradientUnits="userSpaceOnUse" r="21.166656" xlink:href="#a"/><radialGradient id="c" cx="450.908936" cy="189.579361" gradientTransform="matrix(-.00000013 .0585994 .105479 .00000008 -9.577589 -5.645612)" gradientUnits="userSpaceOnUse" r="21.166656" xlink:href="#a"/><radialGradient id="d" cx="450.908936" cy="189.579361" gradientTransform="matrix(-.00000013 -.0585994 .105479 -.00000008 -9.577589 47.696497)" gradientUnits="userSpaceOnUse" r="21.166656" xlink:href="#a"/><radialGradient id="e" cx="450.908936" cy="189.579361" gradientTransform="matrix(.00000013 .0585994 -.105479 .00000008 33.392362 -5.645612)" gradientUnits="userSpaceOnUse" r="21.166656" xlink:href="#a"/><linearGradient id="f" gradientTransform="matrix(.01002 0 0 .0468795 9.34904 10.079088)" gradientUnits="userSpaceOnUse" x1="255.323059" x2="255.323044" y1="233.5" y2="254.666656"><stop offset="0" stop-opacity=".27451"/><stop offset="1" stop-opacity="0"/></linearGradient><linearGradient id="g" gradientUnits="userSpaceOnUse" x1="13.89195900005" x2="13.89195900005" y1="21.02545025" y2="2.17207774998"><stop offset="0" stop-color="#ab47bc"/><stop offset="1" stop-color="#ba68c8"/></linearGradient><linearGradient id="h" gradientUnits="userSpaceOnUse" x1="11.907393" x2="11.907393" y1="21.02545025" y2="2.17207850005"><stop offset="0" stop-color="#bdbdbd"/><stop offset="1" stop-color="#e0e0e0"/></linearGradient><path d="m13.644531 21.027344h1.984375v-.996094h-1.984375zm0 0" fill="url(#b)"/><path d="m10.171875 21.027344h-1.984375v.992187h1.984375zm0 0" fill="url(#c)"/><path d="m10.171875 21.027344h-1.984375v-.996094h1.984375zm0 0" fill="url(#d)"/><path d="m13.644531 21.027344h1.984375v.992187h-1.984375zm0 0" fill="url(#e)"/><path d="m10.171875 20.777344h3.472656v1.242187h-3.472656zm0 0" fill="url(#f)"/><path d="m11.90625 2.171875c5.207031 0 9.429688 4.21875 9.429688 9.425781 0 5.207032-4.222657 9.429688-9.429688 9.429688-5.203125 0-9.425781-4.222656-9.425781-9.429688 0-5.207031 4.222656-9.425781 9.425781-9.425781zm0 0" fill="url(#g)"/><path d="m11.90625 21.027344c-5.222656 0-9.425781-4.207032-9.425781-9.429688 0-.03125 0-.058594 0-.089844.050781 5.179688 4.234375 9.332032 9.425781 9.332032s9.378906-4.152344 9.425781-9.332032c0 .03125.003907.058594.003907.089844 0 5.222656-4.207032 9.429688-9.429688 9.429688zm0 0" fill-opacity=".196078"/><path d="m11.90625 2.171875c-5.222656 0-9.425781 4.203125-9.425781 9.425781v.09375c.050781-5.179687 4.234375-9.335937 9.425781-9.335937s9.378906 4.15625 9.425781 9.335937c0-.03125.003907-.0625.003907-.09375 0-5.222656-4.207032-9.425781-9.429688-9.425781zm0 0" fill="#fff" fill-opacity=".392157"/><path d="m11.90625 2.101562c-5.257812 0-9.496094 4.238282-9.496094 9.496094 0 5.261719 4.238282 9.5 9.496094 9.5 5.261719 0 9.5-4.238281 9.5-9.5 0-5.257812-4.238281-9.496094-9.5-9.496094zm0 .140626c5.1875 0 9.359375 4.171874 9.359375 9.355468 0 5.1875-4.171875 9.359375-9.359375 9.359375-5.183594 0-9.355469-4.171875-9.355469-9.359375 0-5.183594 4.171875-9.355468 9.355469-9.355468zm0 0" fill="#212121"/><path d="m15.96875 9.835938c-.015625.765624.066406 1.59375-.3125 2.292968-.257812.429688-.671875.746094-1.113281.980469.058593.96875.078125 2.359375-.480469 2.988281-.292969.339844-.667969.523438-1.324219.566406-1.003906.050782-2.03125.101563-3.019531-.136718-.46875-.140625-1.074219-.269532-1.230469-.8125-.230469-.464844-.109375-.988282-.148437-1.484375-.039063-2.074219.273437-4.132813.621094-6.171875-.140626-.136719-.808594.066406-.808594-.429688s1.152344-1.035156 1.753906-1.070312c.953125-.207032 1.945312-.125 2.898438.007812.546874.214844 1.125.082032 1.679687.195313 1.515625.539062 1.472656 1.71875 1.484375 3.074219zm-1.085938.8125c-.03125-.785157.078126-1.492188-.234374-2.167969-.292969-.441407-.789063-.601563-.582032.289062.164063 1.066407.242188 2.144531.34375 3.21875.46875-.265625.433594-.878906.472656-1.339843zm0 0" fill="url(#h)"/><path d="m11.171875 6.433594c-.425781 0-.847656.035156-1.265625.125-.601562.035156-1.753906.574218-1.753906 1.070312 0 .066406.011718.121094.035156.167969.195312-.449219 1.179688-.886719 1.71875-.917969.953125-.207031 1.945312-.128906 2.898438.007813.546874.210937 1.125.082031 1.679687.191406 1.433594.511719 1.472656 1.59375 1.480469 2.859375 0-.03125.003906-.066406.003906-.101562-.011719-1.355469.03125-2.535157-1.484375-3.074219-.554687-.113281-1.132813.019531-1.679687-.195313-.535157-.074218-1.085938-.132812-1.632813-.132812zm-2.261719 1.914062c-.316406 1.890625-.589844 3.796875-.574218 5.714844.015624-1.910156.304687-3.804688.625-5.683594-.015626-.011718-.03125-.023437-.050782-.03125zm5.121094.242188c-.027344.101562-.019531.261718.035156.496094.164063 1.066406.242188 2.144531.34375 3.21875.46875-.265626.433594-.875.472656-1.335938-.003906-.082031-.003906-.160156-.003906-.234375-.03125.449219-.027344 1.003906-.46875 1.253906-.101562-1.074219-.179687-2.152343-.34375-3.21875-.015625-.066406-.027344-.125-.035156-.179687zm.84375 1.511718v.242188c.003906-.082031.003906-.164062 0-.242188zm1.089844.214844v.175782c0-.058594 0-.117188 0-.175782zm-1.40625 3.101563c-.003906.003906-.007813.003906-.015625.007812.011719.210938.023437.441407.027343.679688.003907-.234375 0-.46875-.011718-.6875zm-6.214844 1.257812c0 .125-.003906.25 0 .375.003906-.125.003906-.25 0-.375zm0 0" fill="#fff"/><path d="m8.203125 7.800781c-.035156.0625-.050781.125-.050781.183594 0 .445313.539062.328125.75.398437.019531-.113281.039062-.230468.058594-.34375-.117188-.117187-.601563.007813-.757813-.238281zm5.992187.300781c-.136718-.003906-.21875.136719-.15625.503907.082032-.257813.398438-.085938.609376.230469.191406.417968.222656.84375.226562 1.296874.003906-.59375.019531-1.144531-.226562-1.675781-.136719-.203125-.320313-.351562-.453126-.355469zm1.769532 1.835938v.398438c0-.046876 0-.09375.003906-.144532 0-.085937-.003906-.167968-.003906-.253906zm-1.085938.402344c-.003906.125-.003906.253906 0 .382812 0-.03125.003906-.0625.003906-.09375-.003906-.097656-.003906-.195312-.003906-.289062zm1.085938.148437c-.003906.558594-.039063 1.121094-.308594 1.617188-.257812.433593-.671875.75-1.113281.980469.007812.117187.015625.242187.019531.367187.433594-.230469.839844-.542969 1.09375-.96875.332031-.609375.308594-1.316406.308594-1.996094zm-7.628906 3.574219c0 .175781 0 .347656.003906.523438 0 .035156.003906.074218.003906.109374.003906-.164062.007812-.324218-.003906-.488281-.003906-.046875-.003906-.09375-.003906-.144531zm6.234374.046875c-.015624.761719-.128906 1.539063-.507812 1.96875-.335938.386719-.824219.613281-1.324219.566406-1.003906.050781-2.03125.097657-3.019531-.140625-.46875-.136718-1.074219-.269531-1.230469-.808594-.101562-.207031-.132812-.425781-.144531-.648437-.003906.351563-.015625.703125.144531 1.023437.15625.542969.761719.675782 1.230469.8125.988281.238282 2.015625.1875 3.019531.136719.535157-.023437.984375-.183593 1.324219-.566406.445312-.5.523438-1.476563.507812-2.34375zm0 0" fill-opacity=".235294"/><path d="m340.634138-5.186703c-.333302 16.331774 1.416531 33.996754-6.66603 48.911996-5.499475 9.165791-14.331965 15.915147-23.747733 20.914669 1.249881 20.664694 1.666508 50.328528-10.249021 63.743913-6.249403 7.249308-14.248639 11.165601-28.247302 12.08218-21.414622 1.08323-43.329196 2.166459-64.410516-2.916388-9.999045-2.999714-22.914479-5.749451-26.247494-17.331679-4.916197-9.915719-2.33311-21.08132-3.166364-31.663643-.833254-44.245774 5.832776-88.158248 13.248735-131.654094-2.999714-2.916388-17.248353 1.416531-17.248353-9.165791 0-10.582323 24.580986-22.081225 37.413094-22.831153 20.331392-4.416245 41.496037-2.666412 61.827429.16665 11.665553 4.582896 23.997708 1.749833 35.829912 4.166269 32.330246 11.498902 31.413667 36.663166 31.663643 65.577071zm-23.164455 17.331678c-.666603-16.7484 1.666508-31.830293-4.999522-46.245583-6.249404-9.415768-16.831726-12.832108-12.415481 6.166077 3.499665 22.747828 5.166173 45.745632 7.332633 68.66011 9.999045-5.666125 9.249116-18.748209 10.08237-28.580604zm0 0" fill="none" stroke="#212121" stroke-width="3" transform="matrix(.0468795 0 0 .0468795 0 10.079087)"/></svg>

<?xml version="1.0" encoding="UTF-8"?>
<svg xmlns="http://www.w3.org/2000/svg" xmlns:xlink="http://www.w3.org/1999/xlink" width="24px" height="24px" viewBox="0 0 24 24" version="1.1">
<defs>
<radialGradient id="radial0" gradientUnits="userSpaceOnUse" cx="450.908936" cy="189.579361" fx="450.908936" fy="189.579361" r="21.166656" gradientTransform="matrix(0.000000130628,-0.0585994,-0.105479,-0.0000000761539,33.392364,47.696497)">
<stop offset="0" style="stop-color:rgb(0%,0%,0%);stop-opacity:0.313726;"/>
<stop offset="0.222222" style="stop-color:rgb(0%,0%,0%);stop-opacity:0.27451;"/>
<stop offset="1" style="stop-color:rgb(0%,0%,0%);stop-opacity:0;"/>
</radialGradient>
<radialGradient id="radial1" gradientUnits="userSpaceOnUse" cx="450.908936" cy="189.579361" fx="450.908936" fy="189.579361" r="21.166656" gradientTransform="matrix(-0.000000130628,0.0585994,0.105479,0.0000000761539,-9.577589,-5.645612)">
<stop offset="0" style="stop-color:rgb(0%,0%,0%);stop-opacity:0.313726;"/>
<stop offset="0.222222" style="stop-color:rgb(0%,0%,0%);stop-opacity:0.27451;"/>
<stop offset="1" style="stop-color:rgb(0%,0%,0%);stop-opacity:0;"/>
</radialGradient>
<radialGradient id="radial2" gradientUnits="userSpaceOnUse" cx="450.908936" cy="189.579361" fx="450.908936" fy="189.579361" r="21.166656" gradientTransform="matrix(-0.000000130628,-0.0585994,0.105479,-0.0000000761539,-9.577589,47.696497)">
<stop offset="0" style="stop-color:rgb(0%,0%,0%);stop-opacity:0.313726;"/>
<stop offset="0.222222" style="stop-color:rgb(0%,0%,0%);stop-opacity:0.27451;"/>
<stop offset="1" style="stop-color:rgb(0%,0%,0%);stop-opacity:0;"/>
</radialGradient>
<radialGradient id="radial3" gradientUnits="userSpaceOnUse" cx="450.908936" cy="189.579361" fx="450.908936" fy="189.579361" r="21.166656" gradientTransform="matrix(0.000000130628,0.0585994,-0.105479,0.0000000761539,33.392362,-5.645612)">
<stop offset="0" style="stop-color:rgb(0%,0%,0%);stop-opacity:0.313726;"/>
<stop offset="0.222222" style="stop-color:rgb(0%,0%,0%);stop-opacity:0.27451;"/>
<stop offset="1" style="stop-color:rgb(0%,0%,0%);stop-opacity:0;"/>
</radialGradient>
<linearGradient id="linear0" gradientUnits="userSpaceOnUse" x1="255.323059" y1="233.5" x2="255.323044" y2="254.666656" gradientTransform="matrix(0.01002,0,0,0.0468795,9.34904,10.079088)">
<stop offset="0" style="stop-color:rgb(0%,0%,0%);stop-opacity:0.27451;"/>
<stop offset="1" style="stop-color:rgb(0%,0%,0%);stop-opacity:0;"/>
</linearGradient>
<linearGradient id="linear1" gradientUnits="userSpaceOnUse" x1="296.333344" y1="233.5" x2="296.333344" y2="-168.666672" gradientTransform="matrix(0.0468795,0,0,0.0468795,0,10.079087)">
<stop offset="0" style="stop-color:rgb(67.058825%,27.843139%,73.725492%);stop-opacity:1;"/>
<stop offset="1" style="stop-color:rgb(72.941178%,40.784314%,78.431374%);stop-opacity:1;"/>
</linearGradient>
<linearGradient id="linear2" gradientUnits="userSpaceOnUse" x1="254" y1="233.5" x2="254" y2="-168.666656" gradientTransform="matrix(0.0468795,0,0,0.0468795,0,10.079087)">
<stop offset="0" style="stop-color:rgb(74.117649%,74.117649%,74.117649%);stop-opacity:1;"/>
<stop offset="1" style="stop-color:rgb(87.843138%,87.843138%,87.843138%);stop-opacity:1;"/>
</linearGradient>
</defs>
<g id="surface1">
<path style=" stroke:none;fill-rule:nonzero;fill:url(#radial0);" d="M 13.644531 21.027344 L 15.628906 21.027344 L 15.628906 20.03125 L 13.644531 20.03125 Z M 13.644531 21.027344 "/>
<path style=" stroke:none;fill-rule:nonzero;fill:url(#radial1);" d="M 10.171875 21.027344 L 8.1875 21.027344 L 8.1875 22.019531 L 10.171875 22.019531 Z M 10.171875 21.027344 "/>
<path style=" stroke:none;fill-rule:nonzero;fill:url(#radial2);" d="M 10.171875 21.027344 L 8.1875 21.027344 L 8.1875 20.03125 L 10.171875 20.03125 Z M 10.171875 21.027344 "/>
<path style=" stroke:none;fill-rule:nonzero;fill:url(#radial3);" d="M 13.644531 21.027344 L 15.628906 21.027344 L 15.628906 22.019531 L 13.644531 22.019531 Z M 13.644531 21.027344 "/>
<path style=" stroke:none;fill-rule:nonzero;fill:url(#linear0);" d="M 10.171875 20.777344 L 13.644531 20.777344 L 13.644531 22.019531 L 10.171875 22.019531 Z M 10.171875 20.777344 "/>
<path style=" stroke:none;fill-rule:nonzero;fill:url(#linear1);" d="M 11.90625 2.171875 C 17.113281 2.171875 21.335938 6.390625 21.335938 11.597656 C 21.335938 16.804688 17.113281 21.027344 11.90625 21.027344 C 6.703125 21.027344 2.480469 16.804688 2.480469 11.597656 C 2.480469 6.390625 6.703125 2.171875 11.90625 2.171875 Z M 11.90625 2.171875 "/>
<path style=" stroke:none;fill-rule:nonzero;fill:rgb(0%,0%,0%);fill-opacity:0.196078;" d="M 11.90625 21.027344 C 6.683594 21.027344 2.480469 16.820312 2.480469 11.597656 C 2.480469 11.566406 2.480469 11.539062 2.480469 11.507812 C 2.53125 16.6875 6.714844 20.839844 11.90625 20.839844 C 17.097656 20.839844 21.285156 16.6875 21.332031 11.507812 C 21.332031 11.539062 21.335938 11.566406 21.335938 11.597656 C 21.335938 16.820312 17.128906 21.027344 11.90625 21.027344 Z M 11.90625 21.027344 "/>
<path style=" stroke:none;fill-rule:nonzero;fill:rgb(100%,100%,100%);fill-opacity:0.392157;" d="M 11.90625 2.171875 C 6.683594 2.171875 2.480469 6.375 2.480469 11.597656 C 2.480469 11.628906 2.480469 11.660156 2.480469 11.691406 C 2.53125 6.511719 6.714844 2.355469 11.90625 2.355469 C 17.097656 2.355469 21.285156 6.511719 21.332031 11.691406 C 21.332031 11.660156 21.335938 11.628906 21.335938 11.597656 C 21.335938 6.375 17.128906 2.171875 11.90625 2.171875 Z M 11.90625 2.171875 "/>
<path style=" stroke:none;fill-rule:nonzero;fill:rgb(12.941177%,12.941177%,12.941177%);fill-opacity:1;" d="M 11.90625 2.101562 C 6.648438 2.101562 2.410156 6.339844 2.410156 11.597656 C 2.410156 16.859375 6.648438 21.097656 11.90625 21.097656 C 17.167969 21.097656 21.40625 16.859375 21.40625 11.597656 C 21.40625 6.339844 17.167969 2.101562 11.90625 2.101562 Z M 11.90625 2.242188 C 17.09375 2.242188 21.265625 6.414062 21.265625 11.597656 C 21.265625 16.785156 17.09375 20.957031 11.90625 20.957031 C 6.722656 20.957031 2.550781 16.785156 2.550781 11.597656 C 2.550781 6.414062 6.722656 2.242188 11.90625 2.242188 Z M 11.90625 2.242188 "/>
<path style=" stroke:none;fill-rule:nonzero;fill:url(#linear2);" d="M 15.96875 9.835938 C 15.953125 10.601562 16.035156 11.429688 15.65625 12.128906 C 15.398438 12.558594 14.984375 12.875 14.542969 13.109375 C 14.601562 14.078125 14.621094 15.46875 14.0625 16.097656 C 13.769531 16.4375 13.394531 16.621094 12.738281 16.664062 C 11.734375 16.714844 10.707031 16.765625 9.71875 16.527344 C 9.25 16.386719 8.644531 16.257812 8.488281 15.714844 C 8.257812 15.25 8.378906 14.726562 8.339844 14.230469 C 8.300781 12.15625 8.613281 10.097656 8.960938 8.058594 C 8.820312 7.921875 8.152344 8.125 8.152344 7.628906 C 8.152344 7.132812 9.304688 6.59375 9.90625 6.558594 C 10.859375 6.351562 11.851562 6.433594 12.804688 6.566406 C 13.351562 6.78125 13.929688 6.648438 14.484375 6.761719 C 16 7.300781 15.957031 8.480469 15.96875 9.835938 Z M 14.882812 10.648438 C 14.851562 9.863281 14.960938 9.15625 14.648438 8.480469 C 14.355469 8.039062 13.859375 7.878906 14.066406 8.769531 C 14.230469 9.835938 14.308594 10.914062 14.410156 11.988281 C 14.878906 11.722656 14.84375 11.109375 14.882812 10.648438 Z M 14.882812 10.648438 "/>
<path style=" stroke:none;fill-rule:nonzero;fill:rgb(100%,100%,100%);fill-opacity:1;" d="M 11.171875 6.433594 C 10.746094 6.433594 10.324219 6.46875 9.90625 6.558594 C 9.304688 6.59375 8.152344 7.132812 8.152344 7.628906 C 8.152344 7.695312 8.164062 7.75 8.1875 7.796875 C 8.382812 7.347656 9.367188 6.910156 9.90625 6.878906 C 10.859375 6.671875 11.851562 6.75 12.804688 6.886719 C 13.351562 7.097656 13.929688 6.96875 14.484375 7.078125 C 15.917969 7.589844 15.957031 8.671875 15.964844 9.9375 C 15.964844 9.90625 15.96875 9.871094 15.96875 9.835938 C 15.957031 8.480469 16 7.300781 14.484375 6.761719 C 13.929688 6.648438 13.351562 6.78125 12.804688 6.566406 C 12.269531 6.492188 11.71875 6.433594 11.171875 6.433594 Z M 8.910156 8.347656 C 8.59375 10.238281 8.320312 12.144531 8.335938 14.0625 C 8.351562 12.152344 8.640625 10.257812 8.960938 8.378906 C 8.945312 8.367188 8.929688 8.355469 8.910156 8.347656 Z M 14.03125 8.589844 C 14.003906 8.691406 14.011719 8.851562 14.066406 9.085938 C 14.230469 10.152344 14.308594 11.230469 14.410156 12.304688 C 14.878906 12.039062 14.84375 11.429688 14.882812 10.96875 C 14.878906 10.886719 14.878906 10.808594 14.878906 10.734375 C 14.847656 11.183594 14.851562 11.738281 14.410156 11.988281 C 14.308594 10.914062 14.230469 9.835938 14.066406 8.769531 C 14.050781 8.703125 14.039062 8.644531 14.03125 8.589844 Z M 14.875 10.101562 C 14.875 10.179688 14.875 10.261719 14.875 10.34375 C 14.878906 10.261719 14.878906 10.179688 14.875 10.101562 Z M 15.964844 10.316406 C 15.964844 10.375 15.964844 10.433594 15.964844 10.492188 C 15.964844 10.433594 15.964844 10.375 15.964844 10.316406 Z M 14.558594 13.417969 C 14.554688 13.421875 14.550781 13.421875 14.542969 13.425781 C 14.554688 13.636719 14.566406 13.867188 14.570312 14.105469 C 14.574219 13.871094 14.570312 13.636719 14.558594 13.417969 Z M 8.34375 14.675781 C 8.34375 14.800781 8.339844 14.925781 8.34375 15.050781 C 8.347656 14.925781 8.347656 14.800781 8.34375 14.675781 Z M 8.34375 14.675781 "/>
<path style=" stroke:none;fill-rule:nonzero;fill:rgb(0%,0%,0%);fill-opacity:0.235294;" d="M 8.203125 7.800781 C 8.167969 7.863281 8.152344 7.925781 8.152344 7.984375 C 8.152344 8.429688 8.691406 8.3125 8.902344 8.382812 C 8.921875 8.269531 8.941406 8.152344 8.960938 8.039062 C 8.84375 7.921875 8.359375 8.046875 8.203125 7.800781 Z M 14.195312 8.101562 C 14.058594 8.097656 13.976562 8.238281 14.039062 8.605469 C 14.121094 8.347656 14.4375 8.519531 14.648438 8.835938 C 14.839844 9.253906 14.871094 9.679688 14.875 10.132812 C 14.878906 9.539062 14.894531 8.988281 14.648438 8.457031 C 14.511719 8.253906 14.328125 8.105469 14.195312 8.101562 Z M 15.964844 9.9375 C 15.964844 10.070312 15.964844 10.203125 15.964844 10.335938 C 15.964844 10.289062 15.964844 10.242188 15.96875 10.191406 C 15.96875 10.105469 15.964844 10.023438 15.964844 9.9375 Z M 14.878906 10.339844 C 14.875 10.464844 14.875 10.59375 14.878906 10.722656 C 14.878906 10.691406 14.882812 10.660156 14.882812 10.628906 C 14.878906 10.53125 14.878906 10.433594 14.878906 10.339844 Z M 15.964844 10.488281 C 15.960938 11.046875 15.925781 11.609375 15.65625 12.105469 C 15.398438 12.539062 14.984375 12.855469 14.542969 13.085938 C 14.550781 13.203125 14.558594 13.328125 14.5625 13.453125 C 14.996094 13.222656 15.402344 12.910156 15.65625 12.484375 C 15.988281 11.875 15.964844 11.167969 15.964844 10.488281 Z M 8.335938 14.0625 C 8.335938 14.238281 8.335938 14.410156 8.339844 14.585938 C 8.339844 14.621094 8.34375 14.660156 8.34375 14.695312 C 8.347656 14.53125 8.351562 14.371094 8.339844 14.207031 C 8.335938 14.160156 8.335938 14.113281 8.335938 14.0625 Z M 14.570312 14.109375 C 14.554688 14.871094 14.441406 15.648438 14.0625 16.078125 C 13.726562 16.464844 13.238281 16.691406 12.738281 16.644531 C 11.734375 16.695312 10.707031 16.742188 9.71875 16.503906 C 9.25 16.367188 8.644531 16.234375 8.488281 15.695312 C 8.386719 15.488281 8.355469 15.269531 8.34375 15.046875 C 8.339844 15.398438 8.328125 15.75 8.488281 16.070312 C 8.644531 16.613281 9.25 16.746094 9.71875 16.882812 C 10.707031 17.121094 11.734375 17.070312 12.738281 17.019531 C 13.273438 16.996094 13.722656 16.835938 14.0625 16.453125 C 14.507812 15.953125 14.585938 14.976562 14.570312 14.109375 Z M 14.570312 14.109375 "/>
<path style="fill:none;stroke-width:3;stroke-linecap:butt;stroke-linejoin:miter;stroke:rgb(12.941177%,12.941177%,12.941177%);stroke-opacity:1;stroke-miterlimit:4;" d="M 340.634138 -5.186703 C 340.300836 11.145071 342.050669 28.810051 333.968108 43.725293 C 328.468633 52.891084 319.636143 59.64044 310.220375 64.639962 C 311.470256 85.304656 311.886883 114.96849 299.971354 128.383875 C 293.721951 135.633183 285.722715 139.549476 271.724052 140.466055 C 250.30943 141.549285 228.394856 142.632514 207.313536 137.549667 C 197.314491 134.549953 184.399057 131.800216 181.066042 120.217988 C 176.149845 110.302269 178.732932 99.136668 177.899678 88.554345 C 177.066424 44.308571 183.732454 0.396097 191.148413 -43.099749 C 188.148699 -46.016137 173.90006 -41.683218 173.90006 -52.26554 C 173.90006 -62.847863 198.481046 -74.346765 211.313154 -75.096693 C 231.644546 -79.512938 252.809191 -77.763105 273.140583 -74.930043 C 284.806136 -70.347147 297.138291 -73.18021 308.970495 -70.763774 C 341.300741 -59.264872 340.384162 -34.100608 340.634138 -5.186703 Z M 317.469683 12.144975 C 316.80308 -4.603425 319.136191 -19.685318 312.470161 -34.100608 C 306.220757 -43.516376 295.638435 -46.932716 300.05468 -27.934531 C 303.554345 -5.186703 305.220853 17.811101 307.387313 40.725579 C 317.386358 35.059454 316.636429 21.97737 317.469683 12.144975 Z M 317.469683 12.144975 " transform="matrix(0.0468795,0,0,0.0468795,0,10.079087)"/>
</g>
</svg>
